icons/lines/path.svg

<svg xmlns="http://www.w3.org/2000/svg" width="24" height="24" viewBox="0 0 24 24" fill="none" stroke="currentColor" stroke-width="2" stroke-linecap="round" stroke-linejoin="round" >
  <g clip-path="url(#clip0_40_2730)">
  <path d="M19.7901 7.27L16.7601 4.24C15.6101 3.09 14.0401 3.15 13.2701 4.38L11.5801 7.05L16.9801 12.45L19.6501 10.76C20.8001 10.03 20.8701 8.35 19.7901 7.27Z"/>
  <path d="M11.58 7.04999L7.64999 6.80999C5.45999 6.67999 4.68999 7.34999 4.44999 9.43999L3.46999 17.76C3.25999 19.51 4.52999 20.77 6.26999 20.56L14.59 19.58C16.68 19.33 17.44 18.57 17.22 16.38L16.99 12.45"/>
  <path d="M4.60986 19.42L7.63986 16.38"/>
  </g>
  <defs>
  <clipPath id="clip0_40_2730">
  <rect width="24" height="24"/>
  </clipPath>
  </defs>
  </svg>

<svg xmlns="http://www.w3.org/2000/svg" width="24" height="24" viewBox="0 0 24 24" fill="none" stroke="currentColor" stroke-width="2" stroke-linecap="round" stroke-linejoin="round">
  <path d="m11.58 7.05-3.93-.24c-2.19-.13-2.96.54-3.2 2.63l-.98 8.32c-.21 1.75 1.06 3.01 2.8 2.8l8.32-.98c2.09-.25 2.85-1.01 2.63-3.2l-.23-3.93" />
  <path d="M16.76 4.24c-1.15-1.15-2.72-1.09-3.49.14l-1.69 2.67 5.4 5.4 2.67-1.69c1.15-.73 1.22-2.41.14-3.49z" />
  <path d="m4.61 19.42 3.03-3.04" />
</svg>
